!!!OTL: Der Zechbruder. (Hans von Bauss.)
!!!ARE: Europa, Mitteleuropa, Deutschland
!!!SCT: A0342
!!!TXL: @@GMH
!!!YEM: Copyright 1995, estate of Helmut Schaffrath.
**kern	**text
*M4/2	*
*met(c|)	*
*clefC4	*
*k[b-]	*
*G:dor	*
=1	=1
!LO:TX:a:t=dor. tr.	!
1ryy	.
2ryy	.
{2d	Jch
=2	=2
2d	ar-
2d	-mes
2d	brü-
2d	-der-
=3	=3
1A	-lein,
2r}	.
{2A	wie
=4	=4
2.d	ſitʒ
4c	ich
2B-	hie
2A	beim
=5	=5
1G	wein,
2r}	.
{2d	ver-
=6	=6
2c	-ʒer
2A	al-
2B-	-ſo
2G	das
=7	=7
1F	mein,
2r}	.
{2D	gaſt
=8	=8
1.G	hin,
2F#i	gaſt
=9	=9
1G	her!
2r}	.
{2d	wie
=10	=10
2c	kan
2A	ich
2B-	frö-
2G	-lich
=11	=11
1A	ſein,
2r}	.
{2B-	ſo
=12	=12
1.B-	mich
2A	der
=13	=13
1B-	wein
2r}	.
{2B-	ſtets
=14	=14
2c	bringt
2B-	gantʒ
2A	vmb
2G	das
=15	=15
1F	mein?
2r}	.
!LO:TX:a:t=Refr.	!
{2D	Nun
=16	=16
1.G	hol
2F#i	vns
=17	=17
1.G}	wein,
{2d	ha-
=18	=18
2c	-li
2A	la-
2B-	-he,
2G	la-
=19	=19
2A/	-he,
2D	ha-
2E}	-li,
{2F#i	nun
=20	=20
1.G	hol
2F#i	vns
=21	=21
0G/ll}	wein!
==	==
!!!GTL: Trink. und Zechlieder, incl. Fastnacht- u. Martinslieder
!!!AGN: Romanze, Ballade, Lied, Trinklied
!! Reutterliedlein 1535 No. 14.
!!!ONB: ESAC (Essen Associative Code) Database: ALTDEU
!!!AMT: simple quadruple
!!!AIN: vox
!!!EED: Helmut Schaffrath
!!!EEV: 1.0
!!!RDF**kern: i = editorial accidental
!!!RDF**kern: l = terminal long
!!!AMD: Dorian
!!!URL-scan: https://rosdok.uni-rostock.de/mcrviewer/recordIdentifier/rosdok_ppn738218359/iview2/phys_0487.iview2?x=-495.6391625615763&y=44.498029571026564&scale=0.4629418472063854&rotation=0&layout=singlePageLayout&logicalDiv=log_0013
!!!ENC: Anna Maria Matuszewska
!!!EEV: 2024/13/03
*-	*-
